X: 30798
T: Other Clog, The
R: polka
M: 2/4
K: Amajor
|:cA A/G/A/B/|cA A/G/A/c/|BE GA|Bc dB|
cA A/G/A/B/|cA A/G/A/c/|BE GA|BA A2:|
|:ce df|e/g/a c2|ed Bc/d/|fe c2|
ce df|e/g/a c2|ed BG|BA A2:|

